X:126
T:Green Mountain, The
R:reel
H:Second part very similar to second part of "Broderick's", #85
D:Matt Molloy and Sean Keane: Contentment is Wealth
Z:id:hn-reel-126
M:C|
K:D
AF~F2 AFEF|DF~F2 ABde|~f3d efdB|Adfd edBd|
AF~F2 AFEF|DF~F2 ABde|~f3d efdB|1 AFEF D2dB:|2 AFEF D3e||
|:fa~a2 bafe|f2af efde|f2df efdB|Adfd edBd|
fa~a2 bafe|f2af efde|f2df efdB|1 AFEF D3e:|2 AFEF D2dB||

